!!!OTL: AM ROSENHUEGEL WAND ICH MICH EMPOR
!!!ARE: Europa, Mitteleuropa, Deutschland; France, Elsass
!!!SCT: B0670A
!!!YEM: Copyright 1995, estate of Helmut Schaffrath.
**kern
*ICvox
*Ivox
*M4/4
*k[f#]
*G:
{8d
8e
8f#
=1
4.g
8g
8.a
16g
8f#
8g
=2
2a
8r}
{8d
8d
8d
=3
4.a
8a
8.b
16a
8g
8a
=4
2b
8r}
{8d
8e
8f#
=5
4g
4g
8.f#
16g
8a
8b
=6
2cc
8r}
{8e
8cc
8a
=7
8g
8d
2b
4a
=8
2g
8r}
==
!!!AGN: Moral - Lied
!!!ONB: ESAC (Essen Associative Code) Database: BOEHME
!!!AMT: simple quadruple
!!!AIN: vox
!!!EED: Helmut Schaffrath
!!!EEV: 1.0
*-
